X: 14463
T: Gamekeeper's Cottage, The
R: waltz
M: 3/4
K: Gmajor
G/F/D/F/|(G2 G>)A B/A/G/A/|B4 d/c/B/c/|d2 g2 g/f/d|e4 G/F/D/F/|
(G2 G>)A B/A/G/A/|(B2 B>)c d/c/B/c/|[M:2/4] dG B/A/F|[M:3/4] G4:|
B>c|[M:2/4] dg a/g/d|[M:3/4] e4 d/c/B/c/|[M:2/4] dG B/A/D|
M:3/4
E4B>c|[M:2/4] dg a/g/d|[M:3/4] e4 d/c/B/c/|[M:2/4] dG B/A/F|
M:3/4
G4 B>c|[M:2/4] dg a/g/d|[M:3/4] e4 d/c/B/c/|[M:2/4] dG B/A/D|
M:3/4
E4 G/F/D/F/|(G2 G>)A B/A/G/A/|B4 d/c/B/c/|[M:2/4] dG B/A/F|[M:3/4] G4||

